components/Common/Svg/svgs/titledRedux.svg

<svg width="114" height="148" viewBox="0 0 114 148" fill="none" xmlns="http://www.w3.org/2000/svg">
<path d="M38.2899 138L35.3019 132.87H33.3219V138H31.6839V125.454H35.7339C36.6819 125.454 37.4799 125.616 38.1279 125.94C38.7879 126.264 39.2799 126.702 39.6039 127.254C39.9279 127.806 40.0899 128.436 40.0899 129.144C40.0899 130.008 39.8379 130.77 39.3339 131.43C38.8419 132.09 38.0979 132.528 37.1019 132.744L40.2519 138H38.2899ZM33.3219 131.556H35.7339C36.6219 131.556 37.2879 131.34 37.7319 130.908C38.1759 130.464 38.3979 129.876 38.3979 129.144C38.3979 128.4 38.1759 127.824 37.7319 127.416C37.2999 127.008 36.6339 126.804 35.7339 126.804H33.3219V131.556ZM51.635 132.69C51.635 133.002 51.617 133.332 51.581 133.68H43.697C43.757 134.652 44.087 135.414 44.687 135.966C45.299 136.506 46.037 136.776 46.901 136.776C47.609 136.776 48.197 136.614 48.665 136.29C49.145 135.954 49.481 135.51 49.673 134.958H51.437C51.173 135.906 50.645 136.68 49.853 137.28C49.061 137.868 48.077 138.162 46.901 138.162C45.965 138.162 45.125 137.952 44.381 137.532C43.649 137.112 43.073 136.518 42.653 135.75C42.233 134.97 42.023 134.07 42.023 133.05C42.023 132.03 42.227 131.136 42.635 130.368C43.043 129.6 43.613 129.012 44.345 128.604C45.089 128.184 45.941 127.974 46.901 127.974C47.837 127.974 48.665 128.178 49.385 128.586C50.105 128.994 50.657 129.558 51.041 130.278C51.437 130.986 51.635 131.79 51.635 132.69ZM49.943 132.348C49.943 131.724 49.805 131.19 49.529 130.746C49.253 130.29 48.875 129.948 48.395 129.72C47.927 129.48 47.405 129.36 46.829 129.36C46.001 129.36 45.293 129.624 44.705 130.152C44.129 130.68 43.799 131.412 43.715 132.348H49.943ZM53.1851 133.032C53.1851 132.024 53.3891 131.142 53.7971 130.386C54.2051 129.618 54.7631 129.024 55.4711 128.604C56.1911 128.184 56.9951 127.974 57.8831 127.974C58.6511 127.974 59.3651 128.154 60.0251 128.514C60.6851 128.862 61.1891 129.324 61.5371 129.9V124.68H63.1931V138H61.5371V136.146C61.2131 136.734 60.7331 137.22 60.0971 137.604C59.4611 137.976 58.7171 138.162 57.8651 138.162C56.9891 138.162 56.1911 137.946 55.4711 137.514C54.7631 137.082 54.2051 136.476 53.7971 135.696C53.3891 134.916 53.1851 134.028 53.1851 133.032ZM61.5371 133.05C61.5371 132.306 61.3871 131.658 61.0871 131.106C60.7871 130.554 60.3791 130.134 59.8631 129.846C59.3591 129.546 58.8011 129.396 58.1891 129.396C57.5771 129.396 57.0191 129.54 56.5151 129.828C56.0111 130.116 55.6091 130.536 55.3091 131.088C55.0091 131.64 54.8591 132.288 54.8591 133.032C54.8591 133.788 55.0091 134.448 55.3091 135.012C55.6091 135.564 56.0111 135.99 56.5151 136.29C57.0191 136.578 57.5771 136.722 58.1891 136.722C58.8011 136.722 59.3591 136.578 59.8631 136.29C60.3791 135.99 60.7871 135.564 61.0871 135.012C61.3871 134.448 61.5371 133.794 61.5371 133.05ZM74.7092 128.136V138H73.0712V136.542C72.7592 137.046 72.3212 137.442 71.7572 137.73C71.2052 138.006 70.5932 138.144 69.9212 138.144C69.1532 138.144 68.4632 137.988 67.8512 137.676C67.2392 137.352 66.7532 136.872 66.3932 136.236C66.0452 135.6 65.8712 134.826 65.8712 133.914V128.136H67.4912V133.698C67.4912 134.67 67.7372 135.42 68.2292 135.948C68.7212 136.464 69.3932 136.722 70.2452 136.722C71.1212 136.722 71.8112 136.452 72.3152 135.912C72.8192 135.372 73.0712 134.586 73.0712 133.554V128.136H74.7092ZM82.6229 138L80.2829 134.328L78.0329 138H76.3229L79.5089 133.104L76.3229 128.136H78.1769L80.5169 131.79L82.7489 128.136H84.4589L81.2909 133.014L84.4769 138H82.6229Z" fill="#A0A0A0"/>
<g clip-path="url(#clip0_6994_50205)">
<path d="M75.1321 66.6054C78.6009 66.2447 81.2325 63.241 81.1128 59.6361C80.9935 56.0316 78.0027 53.1478 74.4142 53.1478H74.1752C70.4666 53.268 67.5959 56.392 67.7156 60.1167C67.8353 61.9191 68.5528 63.4811 69.6294 64.5625C65.5624 72.6132 59.3423 78.5007 50.0121 83.4271C43.6722 86.7915 37.0933 87.9931 30.5144 87.1522C25.1314 86.4312 20.9448 84.0283 18.3128 80.0627C14.4852 74.1751 14.1264 67.8067 17.3562 61.4386C19.6291 56.8725 23.2173 53.5081 25.4902 51.8259C25.0117 50.264 24.2939 47.6206 23.9351 45.6983C6.59029 58.3146 8.38474 75.3768 13.648 83.4271C17.5953 89.4352 25.6099 93.16 34.4617 93.16C36.8539 93.16 39.2461 92.9195 41.6387 92.319C56.9501 89.315 68.5532 80.1829 75.1321 66.6054ZM96.1851 51.7061C87.0939 41.012 73.6967 35.1245 58.3854 35.1245H56.4716C55.395 32.9617 53.1221 31.5196 50.6102 31.5196H50.3708C46.6629 31.6398 43.7923 34.7638 43.9116 38.4889C44.0313 42.0934 47.0217 44.9772 50.6102 44.9772H50.8492C53.4809 44.857 55.7538 43.1748 56.7107 40.8918H58.8638C67.955 40.8918 76.5674 43.5351 84.343 48.702C90.3237 52.6672 94.6301 57.8341 97.0223 64.0819C99.0558 69.1285 98.9361 74.0549 96.7829 78.2606C93.4338 84.6287 87.8118 88.1134 80.3953 88.1134C75.6105 88.1134 71.0651 86.6712 68.6725 85.5899C67.3569 86.7915 64.9643 88.7138 63.2895 89.9158C68.4335 92.3187 73.6967 93.6405 78.7206 93.6405C90.204 93.6405 98.6971 87.2721 101.927 80.904C105.396 73.9347 105.156 61.9191 96.1851 51.7061ZM35.4185 68.6476C35.5383 72.2525 38.5286 75.1359 42.1172 75.1359H42.3566C46.0648 75.0161 48.9355 71.8918 48.8158 68.167C48.6964 64.5621 45.7057 61.6787 42.1172 61.6787H41.8781C41.6387 61.6787 41.2796 61.6787 41.0409 61.7985C36.1364 53.628 34.1029 44.7368 34.8208 35.1241C35.2988 27.9147 37.6914 21.6665 41.8781 16.4996C45.3469 12.0538 52.0455 9.89107 56.5913 9.7712C69.2707 9.53073 74.6533 25.3912 75.0124 31.7597C76.5674 32.1201 79.199 32.9613 80.9935 33.5622C79.5578 14.0971 67.5959 4.00391 56.1129 4.00391C45.3469 4.00391 35.4186 11.8141 31.4709 23.3491C25.9686 38.729 29.5571 53.5081 36.2557 65.1633C35.658 66.0042 35.2988 67.3261 35.4185 68.648V68.6476Z" fill="#A3A3A3"/>
</g>
<defs>
<clipPath id="clip0_6994_50205">
<rect width="94" height="90" fill="white" transform="translate(10 4)"/>
</clipPath>
</defs>
</svg>

<svg width="114" height="148" viewBox="0 0 114 148" fill="none" xmlns="http://www.w3.org/2000/svg"><path d="m38.29 138-2.988-5.13h-1.98V138h-1.638v-12.546h4.05c.948 0 1.746.162 2.394.486.66.324 1.152.762 1.476 1.314.324.552.486 1.182.486 1.89 0 .864-.252 1.626-.756 2.286-.492.66-1.236 1.098-2.232 1.314l3.15 5.256H38.29Zm-4.968-6.444h2.412c.888 0 1.554-.216 1.998-.648.444-.444.666-1.032.666-1.764 0-.744-.222-1.32-.666-1.728-.432-.408-1.098-.612-1.998-.612h-2.412v4.752Zm18.313 1.134c0 .312-.018.642-.054.99h-7.884c.06.972.39 1.734.99 2.286.612.54 1.35.81 2.214.81.708 0 1.296-.162 1.764-.486.48-.336.816-.78 1.008-1.332h1.764a4.284 4.284 0 0 1-1.584 2.322c-.792.588-1.776.882-2.952.882-.936 0-1.776-.21-2.52-.63a4.492 4.492 0 0 1-1.728-1.782c-.42-.78-.63-1.68-.63-2.7 0-1.02.204-1.914.612-2.682a4.254 4.254 0 0 1 1.71-1.764c.744-.42 1.596-.63 2.556-.63.936 0 1.764.204 2.484.612.72.408 1.272.972 1.656 1.692.396.708.594 1.512.594 2.412Zm-1.692-.342c0-.624-.138-1.158-.414-1.602a2.605 2.605 0 0 0-1.134-1.026c-.468-.24-.99-.36-1.566-.36-.828 0-1.536.264-2.124.792-.576.528-.906 1.26-.99 2.196h6.228Zm3.242.684c0-1.008.204-1.89.612-2.646a4.446 4.446 0 0 1 1.674-1.782c.72-.42 1.524-.63 2.412-.63.768 0 1.482.18 2.142.54.66.348 1.164.81 1.512 1.386v-5.22h1.656V138h-1.656v-1.854c-.324.588-.804 1.074-1.44 1.458-.636.372-1.38.558-2.232.558a4.564 4.564 0 0 1-2.394-.648c-.708-.432-1.266-1.038-1.674-1.818-.408-.78-.612-1.668-.612-2.664Zm8.352.018c0-.744-.15-1.392-.45-1.944a3.098 3.098 0 0 0-1.224-1.26 3.211 3.211 0 0 0-1.674-.45c-.612 0-1.17.144-1.674.432a3.134 3.134 0 0 0-1.206 1.26c-.3.552-.45 1.2-.45 1.944 0 .756.15 1.416.45 1.98.3.552.702.978 1.206 1.278a3.314 3.314 0 0 0 1.674.432c.612 0 1.17-.144 1.674-.432.516-.3.924-.726 1.224-1.278.3-.564.45-1.218.45-1.962Zm13.172-4.914V138h-1.638v-1.458c-.312.504-.75.9-1.314 1.188a4.047 4.047 0 0 1-1.836.414c-.768 0-1.458-.156-2.07-.468a3.582 3.582 0 0 1-1.458-1.44c-.348-.636-.522-1.41-.522-2.322v-5.778h1.62v5.562c0 .972.246 1.722.738 2.25.492.516 1.164.774 2.016.774.876 0 1.566-.27 2.07-.81.504-.54.756-1.326.756-2.358v-5.418h1.638ZM82.623 138l-2.34-3.672-2.25 3.672h-1.71l3.186-4.896-3.186-4.968h1.854l2.34 3.654 2.232-3.654h1.71l-3.168 4.878L84.477 138h-1.854Z" fill="#A0A0A0"/><path d="M75.132 66.605c3.469-.36 6.1-3.364 5.98-6.969-.118-3.604-3.11-6.488-6.698-6.488h-.239c-3.708.12-6.58 3.244-6.46 6.969.12 1.802.838 3.364 1.914 4.446-4.067 8.05-10.287 13.938-19.617 18.864-6.34 3.364-12.919 4.566-19.498 3.725-5.383-.72-9.57-3.124-12.201-7.09-3.828-5.887-4.187-12.255-.957-18.623 2.273-4.566 5.861-7.93 8.134-9.613-.478-1.562-1.196-4.205-1.555-6.128C6.59 58.315 8.385 75.377 13.648 83.428c3.947 6.007 11.962 9.732 20.814 9.732 2.392 0 4.784-.24 7.177-.841 15.311-3.004 26.914-12.136 33.493-25.714Zm21.053-14.899c-9.091-10.694-22.488-16.582-37.8-16.582h-1.913c-1.077-2.162-3.35-3.604-5.862-3.604h-.24c-3.707.12-6.578 3.244-6.458 6.969.12 3.604 3.11 6.488 6.698 6.488h.24c2.63-.12 4.904-1.802 5.86-4.085h2.154c9.091 0 17.703 2.643 25.479 7.81 5.98 3.965 10.287 9.132 12.68 15.38 2.033 5.047 1.913 9.973-.24 14.179-3.35 6.368-8.971 9.852-16.388 9.852-4.784 0-9.33-1.442-11.722-2.523-1.316 1.201-3.709 3.124-5.384 4.326 5.144 2.403 10.408 3.725 15.432 3.725 11.483 0 19.976-6.369 23.206-12.737 3.469-6.97 3.229-18.985-5.742-29.198ZM35.418 68.648c.12 3.605 3.11 6.488 6.7 6.488h.239c3.708-.12 6.578-3.244 6.459-6.969-.12-3.605-3.11-6.488-6.699-6.488h-.239c-.24 0-.598 0-.837.12-4.905-8.171-6.938-17.062-6.22-26.675.478-7.21 2.87-13.458 7.057-18.624 3.469-4.446 10.167-6.609 14.713-6.729 12.68-.24 18.062 15.62 18.421 21.989 1.555.36 4.187 1.201 5.981 1.802-1.435-19.465-13.397-29.558-24.88-29.558-10.766 0-20.694 7.81-24.642 19.345-5.502 15.38-1.914 30.16 4.785 41.814-.598.841-.957 2.163-.837 3.485Z" fill="#A3A3A3"/></svg>
